;FLAVOR:Marlin
;TIME:2988
;Filament used: 2.27695m
;Layer height: 0.2
;MINX:73.212
;MINY:73.212
;MINZ:0.3
;MAXX:146.788
;MAXY:146.788
;MAXZ:13.9
;Generated with Cura_SteamEngine 4.8.0
M140 S60
M105
M190 S60
M104 S200
M105
M109 S200
M82 ;absolute extrusion mode
G28 ;Home
G1 Z15.0 F2000 ;Move the platform
G92 E0
G92 E0
G1 F1500 E-6.5
;LAYER_COUNT:69
;LAYER:0
M107
M204 S1000
G0 F7500 X82.942 Y85.07 Z0.3
;TYPE:SKIRT
G1 F1500 E0
G1 X85.083 Y82.931 E0.15099
G1 X85.689 Y82.386 E0.19165
G1 X88.049 Y80.476 E0.34312
G1 X88.707 Y79.998 E0.3837
G1 X91.258 Y78.341 E0.53546
G1 X91.966 Y77.932 E0.57625
G1 X94.663 Y76.558 E0.72726
G1 X95.409 Y76.226 E0.768
G1 X98.254 Y75.134 E0.92003
G1 X99.032 Y74.881 E0.96085
G1 X101.954 Y74.099 E1.11176
G1 X102.754 Y73.93 E1.15255
G1 X105.76 Y73.455 E1.30438
G1 X106.571 Y73.37 E1.34506
G1 X109.599 Y73.212 E1.49633
G1 X110.414 Y73.212 E1.537
G1 X113.442 Y73.371 E1.68827
G1 X114.253 Y73.456 E1.72895
G1 X117.26 Y73.932 E1.88084
G1 X118.06 Y74.102 E1.92164
G1 X120.981 Y74.885 E2.07252
G1 X121.759 Y75.138 E2.11333
G1 X124.603 Y76.231 E2.26534
G1 X125.347 Y76.562 E2.30597
G1 X128.043 Y77.936 E2.45693
G1 X128.752 Y78.346 E2.49779
G1 X131.304 Y80.005 E2.64965
G1 X131.961 Y80.483 E2.69018
G1 X134.32 Y82.393 E2.84162
G1 X134.93 Y82.942 E2.88256
G1 X137.069 Y85.083 E3.03355
G1 X137.614 Y85.689 E3.07421
G1 X139.524 Y88.049 E3.22568
G1 X140.002 Y88.707 E3.26625
G1 X141.659 Y91.258 E3.41802
G1 X142.068 Y91.966 E3.45881
G1 X143.442 Y94.663 E3.60982
G1 X143.774 Y95.409 E3.65055
G1 X144.866 Y98.254 E3.80259
G1 X145.119 Y99.032 E3.8434
G1 X145.901 Y101.954 E3.99431
G1 X146.07 Y102.753 E4.03506
G1 X146.545 Y105.757 E4.18679
G1 X146.63 Y106.569 E4.22752
G1 X146.788 Y109.598 E4.37885
G1 X146.788 Y110.413 E4.41951
G1 X146.629 Y113.442 E4.57083
G1 X146.544 Y114.253 E4.61151
G1 X146.068 Y117.26 E4.7634
G1 X145.898 Y118.06 E4.8042
G1 X145.115 Y120.981 E4.95508
G1 X144.862 Y121.759 E4.99589
G1 X143.77 Y124.601 E5.14779
G1 X143.439 Y125.345 E5.18841
G1 X142.064 Y128.043 E5.33949
G1 X141.654 Y128.752 E5.38035
G1 X139.995 Y131.304 E5.53221
G1 X139.517 Y131.961 E5.57274
G1 X137.607 Y134.32 E5.72418
G1 X137.058 Y134.93 E5.76512
G1 X134.917 Y137.069 E5.91611
G1 X134.309 Y137.616 E5.95691
G1 X131.94 Y139.532 E6.10892
G1 X131.284 Y140.008 E6.14935
G1 X128.742 Y141.659 E6.30058
G1 X128.034 Y142.068 E6.34137
G1 X125.337 Y143.442 E6.49238
G1 X124.591 Y143.774 E6.53312
G1 X121.746 Y144.866 E6.68515
G1 X120.968 Y145.119 E6.72596
G1 X118.046 Y145.901 E6.87687
G1 X117.246 Y146.07 E6.91767
G1 X114.24 Y146.545 E7.0695
G1 X113.429 Y146.63 E7.11018
G1 X110.401 Y146.788 E7.26145
G1 X109.586 Y146.788 E7.30211
G1 X106.558 Y146.629 E7.45339
G1 X105.747 Y146.544 E7.49407
G1 X102.74 Y146.068 E7.64596
G1 X101.94 Y145.898 E7.68676
G1 X99.019 Y145.115 E7.83764
G1 X98.241 Y144.862 E7.87845
G1 X95.397 Y143.769 E8.03046
G1 X94.653 Y143.438 E8.07108
G1 X91.955 Y142.063 E8.22216
G1 X91.245 Y141.652 E8.26309
G1 X88.695 Y139.994 E8.41484
G1 X88.039 Y139.517 E8.4553
G1 X85.68 Y137.607 E8.60673
G1 X85.07 Y137.058 E8.64768
G1 X82.931 Y134.917 E8.79866
G1 X82.386 Y134.311 E8.83933
G1 X80.476 Y131.951 E8.9908
G1 X79.997 Y131.292 E9.03144
G1 X78.339 Y128.739 E9.18331
G1 X77.931 Y128.032 E9.22404
G1 X76.557 Y125.335 E9.37505
G1 X76.225 Y124.589 E9.41579
G1 X75.134 Y121.746 E9.56771
G1 X74.881 Y120.968 E9.60852
G1 X74.099 Y118.046 E9.75943
G1 X73.93 Y117.246 E9.80023
G1 X73.455 Y114.24 E9.95206
G1 X73.37 Y113.43 E9.99269
G1 X73.212 Y110.403 E10.14391
G1 X73.212 Y109.587 E10.18462
G1 X73.371 Y106.558 E10.33595
G1 X73.456 Y105.747 E10.37663
G1 X73.932 Y102.74 E10.52852
G1 X74.102 Y101.94 E10.56932
G1 X74.885 Y99.019 E10.7202
G1 X75.138 Y98.241 E10.76101
G1 X76.23 Y95.399 E10.91291
G1 X76.561 Y94.655 E10.95353
G1 X77.936 Y91.957 E11.10461
G1 X78.346 Y91.248 E11.14547
G1 X80.005 Y88.696 E11.29733
G1 X80.483 Y88.039 E11.33786
G1 X82.393 Y85.68 E11.48929
G1 X82.942 Y85.07 E11.53024
G0 F7500 X83.225 Y85.353
G1 F1500 X85.366 Y83.214 E11.68123
G1 X85.941 Y82.697 E11.7198
G1 X88.301 Y80.787 E11.87127
G1 X88.925 Y80.333 E11.90977
G1 X91.476 Y78.676 E12.06153
G1 X92.148 Y78.288 E12.10025
G1 X94.845 Y76.914 E12.25126
G1 X95.552 Y76.599 E12.28987
G1 X98.397 Y75.507 E12.44191
G1 X99.136 Y75.268 E12.48065
G1 X102.058 Y74.486 E12.63156
G1 X102.816 Y74.325 E12.67022
G1 X105.822 Y73.85 E12.82206
G1 X106.591 Y73.769 E12.86063
G1 X109.619 Y73.611 E13.01191
G1 X110.393 Y73.611 E13.05052
G1 X113.421 Y73.77 E13.2018
G1 X114.19 Y73.851 E13.24037
G1 X117.197 Y74.327 E13.39226
G1 X117.956 Y74.488 E13.43097
G1 X120.877 Y75.271 E13.58185
G1 X121.616 Y75.512 E13.62063
G1 X124.46 Y76.605 E13.77263
G1 X125.165 Y76.919 E13.81113
G1 X127.861 Y78.293 E13.9621
G1 X128.534 Y78.682 E14.00088
G1 X131.086 Y80.341 E14.15274
G1 X131.71 Y80.794 E14.19121
G1 X134.069 Y82.704 E14.34264
G1 X134.647 Y83.225 E14.38146
G1 X136.786 Y85.366 E14.53245
G1 X137.303 Y85.941 E14.57103
G1 X139.213 Y88.301 E14.7225
G1 X139.667 Y88.925 E14.761
G1 X141.324 Y91.476 E14.91276
G1 X141.712 Y92.148 E14.95147
G1 X143.086 Y94.845 E15.10248
G1 X143.401 Y95.552 E15.1411
G1 X144.493 Y98.397 E15.29313
G1 X144.732 Y99.136 E15.33188
G1 X145.514 Y102.058 E15.48279
G1 X145.675 Y102.815 E15.5214
G1 X146.15 Y105.819 E15.67313
G1 X146.231 Y106.59 E15.71181
G1 X146.389 Y109.619 E15.86313
G1 X146.389 Y110.392 E15.9017
G1 X146.23 Y113.421 E16.05302
G1 X146.149 Y114.19 E16.0916
G1 X145.673 Y117.197 E16.24349
G1 X145.512 Y117.956 E16.2822
G1 X144.729 Y120.877 E16.43307
G1 X144.489 Y121.615 E16.47179
G1 X143.397 Y124.457 E16.62368
G1 X143.082 Y125.163 E16.66225
G1 X141.707 Y127.861 E16.81333
G1 X141.318 Y128.534 E16.85211
G1 X139.659 Y131.086 E17.00397
G1 X139.206 Y131.71 E17.04244
G1 X137.296 Y134.069 E17.19387
G1 X136.775 Y134.647 E17.23269
G1 X134.634 Y136.786 E17.38368
G1 X134.057 Y137.305 E17.4224
G1 X131.688 Y139.221 E17.57441
G1 X131.066 Y139.673 E17.61277
G1 X128.524 Y141.324 E17.76399
G1 X127.852 Y141.712 E17.8027
G1 X125.155 Y143.086 E17.95371
G1 X124.448 Y143.401 E17.99233
G1 X121.603 Y144.493 E18.14436
G1 X120.864 Y144.732 E18.18311
G1 X117.942 Y145.514 E18.33402
G1 X117.184 Y145.675 E18.37268
G1 X114.178 Y146.15 E18.52451
G1 X113.409 Y146.231 E18.56309
G1 X110.381 Y146.389 E18.71436
G1 X109.607 Y146.389 E18.75298
G1 X106.579 Y146.23 E18.90425
G1 X105.81 Y146.149 E18.94283
G1 X102.803 Y145.673 E19.09472
G1 X102.044 Y145.512 E19.13343
G1 X99.123 Y144.729 E19.2843
G1 X98.384 Y144.488 E19.32308
G1 X95.54 Y143.395 E19.47509
G1 X94.835 Y143.081 E19.51359
G1 X92.137 Y141.706 E19.66467
G1 X91.463 Y141.317 E19.70349
G1 X88.913 Y139.659 E19.85524
G1 X88.29 Y139.206 E19.89367
G1 X85.931 Y137.296 E20.0451
G1 X85.353 Y136.775 E20.08392
G1 X83.214 Y134.634 E20.23491
G1 X82.697 Y134.059 E20.27349
G1 X80.787 Y131.699 E20.42496
G1 X80.333 Y131.074 E20.4635
G1 X78.675 Y128.521 E20.61537
G1 X78.287 Y127.85 E20.65404
G1 X76.913 Y125.153 E20.80505
G1 X76.598 Y124.445 E20.84371
G1 X75.507 Y121.602 E20.99563
G1 X75.268 Y120.864 E21.03433
G1 X74.486 Y117.942 E21.18524
G1 X74.325 Y117.184 E21.2239
G1 X73.85 Y114.178 E21.37573
G1 X73.769 Y113.409 E21.41431
G1 X73.611 Y110.382 E21.56553
G1 X73.611 Y109.608 E21.60415
G1 X73.77 Y106.579 E21.75548
G1 X73.851 Y105.81 E21.79405
G1 X74.327 Y102.803 E21.94594
G1 X74.488 Y102.044 E21.98465
G1 X75.271 Y99.123 E22.13552
G1 X75.511 Y98.385 E22.17424
G1 X76.603 Y95.543 E22.32614
G1 X76.918 Y94.837 E22.3647
G1 X78.293 Y92.139 E22.51578
G1 X78.682 Y91.466 E22.55456
G1 X80.341 Y88.914 E22.70642
G1 X80.794 Y88.29 E22.74489
G1 X82.704 Y85.931 E22.89632
G1 X83.225 Y85.353 E22.93514
G0 F7500 X83.508 Y85.636
G1 F1500 X85.649 Y83.497 E23.08613
G1 X86.192 Y83.008 E23.12259
G1 X88.552 Y81.098 E23.27406
G1 X89.143 Y80.669 E23.31049
G1 X91.694 Y79.012 E23.46225
G1 X92.329 Y78.645 E23.49885
G1 X95.026 Y77.271 E23.64985
G1 X95.696 Y76.973 E23.68644
G1 X98.541 Y75.881 E23.83847
G1 X99.239 Y75.654 E23.87509
G1 X102.161 Y74.872 E24.026
G1 X102.878 Y74.72 E24.06257
G1 X105.884 Y74.245 E24.2144
G1 X106.612 Y74.169 E24.25091
G1 X109.64 Y74.011 E24.40219
G1 X110.372 Y74.011 E24.43871
G1 X113.4 Y74.17 E24.58998
G1 X114.127 Y74.246 E24.62645
G1 X117.134 Y74.722 E24.77834
G1 X117.852 Y74.875 E24.81496
G1 X120.773 Y75.658 E24.96584
G1 X121.472 Y75.885 E25.0025
G1 X124.316 Y76.978 E25.15451
G1 X124.984 Y77.275 E25.19098
G1 X127.68 Y78.649 E25.34195
G1 X128.316 Y79.017 E25.37861
G1 X130.868 Y80.676 E25.53046
G1 X131.458 Y81.105 E25.56686
G1 X133.817 Y83.015 E25.71829
G1 X134.364 Y83.508 E25.75503
G1 X136.503 Y85.649 E25.90602
G1 X136.992 Y86.192 E25.94247
G1 X138.902 Y88.552 E26.09394
G1 X139.331 Y89.143 E26.13038
G1 X140.988 Y91.694 E26.28214
G1 X141.355 Y92.329 E26.31873
G1 X142.729 Y95.026 E26.46974
G1 X143.027 Y95.696 E26.50632
G1 X144.119 Y98.541 E26.65836
G1 X144.346 Y99.239 E26.69497
G1 X145.128 Y102.161 E26.84588
G1 X145.28 Y102.878 E26.88245
G1 X145.755 Y105.882 E27.03418
G1 X145.831 Y106.61 E27.0707
G1 X145.989 Y109.639 E27.22202
G1 X145.989 Y110.371 E27.25854
G1 X145.83 Y113.4 E27.40987
G1 X145.754 Y114.127 E27.44634
G1 X145.278 Y117.134 E27.59822
G1 X145.125 Y117.852 E27.63485
G1 X144.342 Y120.773 E27.78572
G1 X144.115 Y121.472 E27.82239
G1 X143.023 Y124.314 E27.97428
G1 X142.726 Y124.981 E28.01071
G1 X141.351 Y127.679 E28.16179
G1 X140.983 Y128.316 E28.19849
G1 X139.324 Y130.868 E28.35035
G1 X138.895 Y131.458 E28.38674
G1 X136.985 Y133.817 E28.53817
G1 X136.492 Y134.364 E28.57491
G1 X134.351 Y136.503 E28.7259
G1 X133.806 Y136.994 E28.7625
G1 X131.437 Y138.91 E28.9145
G1 X130.848 Y139.337 E28.9508
G1 X128.306 Y140.988 E29.10202
G1 X127.671 Y141.355 E29.13861
G1 X124.974 Y142.729 E29.28962
G1 X124.304 Y143.027 E29.3262
G1 X121.459 Y144.119 E29.47824
G1 X120.761 Y144.346 E29.51486
G1 X117.839 Y145.128 E29.66577
G1 X117.122 Y145.28 E29.70233
G1 X114.116 Y145.755 E29.85416
G1 X113.388 Y145.831 E29.89068
G1 X110.36 Y145.989 E30.04195
G1 X109.628 Y145.989 E30.07847
G1 X106.6 Y145.83 E30.22975
G1 X105.873 Y145.754 E30.26622
G1 X102.866 Y145.278 E30.4181
G1 X102.148 Y145.125 E30.45473
G1 X99.227 Y144.342 E30.6056
G1 X98.528 Y144.115 E30.64227
G1 X95.684 Y143.022 E30.79428
G1 X95.017 Y142.725 E30.8307
G1 X92.319 Y141.35 E30.98178
G1 X91.681 Y140.982 E31.01852
G1 X89.131 Y139.324 E31.17027
G1 X88.542 Y138.895 E31.20662
G1 X86.183 Y136.985 E31.35806
G1 X85.636 Y136.492 E31.39479
G1 X83.497 Y134.351 E31.54578
G1 X83.008 Y133.808 E31.58224
G1 X81.098 Y131.448 E31.73371
G1 X80.668 Y130.857 E31.77017
G1 X79.01 Y128.304 E31.92204
G1 X78.644 Y127.669 E31.95861
G1 X77.27 Y124.972 E32.10962
G1 X76.972 Y124.302 E32.1462
G1 X75.881 Y121.459 E32.29813
G1 X75.654 Y120.761 E32.33474
G1 X74.872 Y117.839 E32.48565
G1 X74.72 Y117.122 E32.52222
G1 X74.245 Y114.116 E32.67405
G1 X74.169 Y113.388 E32.71057
G1 X74.011 Y110.361 E32.86179
G1 X74.011 Y109.629 E32.89831
G1 X74.17 Y106.6 E33.04964
G1 X74.246 Y105.873 E33.0861
G1 X74.722 Y102.866 E33.23799
G1 X74.875 Y102.148 E33.27462
G1 X75.658 Y99.227 E33.42549
G1 X75.885 Y98.528 E33.46216
G1 X76.977 Y95.686 E33.61405
G1 X77.274 Y95.019 E33.65048
G1 X78.649 Y92.321 E33.80156
G1 X79.017 Y91.684 E33.83826
G1 X80.676 Y89.132 E33.99012
G1 X81.105 Y88.542 E34.02651
G1 X83.015 Y86.183 E34.17794
G1 X83.508 Y85.636 E34.21468
G0 F7500 X83.79 Y85.919
G1 F1500 X85.931 Y83.78 E34.36567
G1 X86.444 Y83.319 E34.40008
G1 X88.804 Y81.409 E34.55155
G1 X89.361 Y81.004 E34.5859
G1 X91.912 Y79.347 E34.73767
G1 X92.511 Y79.001 E34.77218
G1 X95.208 Y77.627 E34.92319
G1 X95.839 Y77.346 E34.95765
G1 X98.684 Y76.254 E35.10968
G1 X99.343 Y76.04 E35.14425
G1 X102.265 Y75.258 E35.29516
G1 X102.941 Y75.115 E35.32963
G1 X105.947 Y74.64 E35.48146
G1 X106.633 Y74.568 E35.51588
G1 X109.661 Y74.41 E35.66715
G1 X110.351 Y74.41 E35.70157
G1 X113.379 Y74.569 E35.85285
G1 X114.065 Y74.641 E35.88726
G1 X117.072 Y75.117 E36.03915
G1 X117.749 Y75.261 E36.07368
G1 X120.67 Y76.044 E36.22455
G1 X121.329 Y76.258 E36.25912
G1 X124.173 Y77.351 E36.41113
G1 X124.802 Y77.632 E36.4455
G1 X127.498 Y79.006 E36.59646
G1 X128.098 Y79.352 E36.63102
G1 X130.65 Y81.011 E36.78287
G1 X131.206 Y81.416 E36.81719
G1 X133.565 Y83.326 E36.96862
G1 X134.081 Y83.79 E37.00324
G1 X136.22 Y85.931 E37.15423
G1 X136.681 Y86.444 E37.18864
G1 X138.591 Y88.804 E37.34011
G1 X138.996 Y89.361 E37.37447
G1 X140.653 Y91.912 E37.52623
G1 X140.999 Y92.511 E37.56074
G1 X142.373 Y95.208 E37.71175
G1 X142.654 Y95.839 E37.74621
G1 X143.746 Y98.684 E37.89825
G1 X143.96 Y99.343 E37.93282
G1 X144.742 Y102.265 E38.08373
G1 X144.885 Y102.94 E38.11815
G1 X145.36 Y105.944 E38.26988
G1 X145.432 Y106.631 E38.30434
G1 X145.59 Y109.66 E38.45567
G1 X145.59 Y110.35 E38.49009
G1 X145.431 Y113.379 E38.64142
G1 X145.359 Y114.065 E38.67583
G1 X144.883 Y117.072 E38.82772
G1 X144.739 Y117.749 E38.86225
G1 X143.956 Y120.67 E39.01312
G1 X143.742 Y121.328 E39.04764
G1 X142.65 Y124.17 E39.19954
G1 X142.369 Y124.8 E39.23395
G1 X140.994 Y127.498 E39.38503
G1 X140.648 Y128.098 E39.41958
G1 X138.989 Y130.65 E39.57144
G1 X138.584 Y131.206 E39.60576
G1 X136.674 Y133.565 E39.75719
G1 X136.21 Y134.081 E39.79181
G1 X134.069 Y136.22 E39.9428
G1 X133.554 Y136.683 E39.97735
G1 X131.185 Y138.599 E40.12936
G1 X130.63 Y139.002 E40.16358
G1 X128.088 Y140.653 E40.3148
G1 X127.489 Y140.999 E40.34931
G1 X124.792 Y142.373 E40.50032
G1 X124.161 Y142.654 E40.53478
G1 X121.316 Y143.746 E40.68681
G1 X120.657 Y143.96 E40.72138
G1 X117.735 Y144.742 E40.87229
G1 X117.059 Y144.885 E40.90676
G1 X114.053 Y145.36 E41.05859
G1 X113.367 Y145.432 E41.09301
G1 X110.339 Y145.59 E41.24428
G1 X109.649 Y145.59 E41.2787
G1 X106.621 Y145.431 E41.42998
G1 X105.935 Y145.359 E41.46439
G1 X102.928 Y144.883 E41.61628
G1 X102.251 Y144.739 E41.65081
G1 X99.33 Y143.956 E41.80169
G1 X98.671 Y143.742 E41.83625
G1 X95.827 Y142.649 E41.98826
G1 X95.198 Y142.368 E42.02263
G1 X92.5 Y140.993 E42.1737
G1 X91.899 Y140.646 E42.20833
G1 X89.349 Y138.988 E42.36007
G1 X88.794 Y138.584 E42.39432
G1 X86.435 Y136.674 E42.54575
G1 X85.919 Y136.21 E42.58037
G1 X83.78 Y134.069 E42.73136
G1 X83.319 Y133.556 E42.76577
G1 X81.409 Y131.196 E42.91724
G1 X81.004 Y130.639 E42.9516
G1 X79.346 Y128.086 E43.10347
G1 X79 Y127.487 E43.13798
G1 X77.626 Y124.79 E43.28899
G1 X77.345 Y124.159 E43.32346
G1 X76.254 Y121.316 E43.47538
G1 X76.04 Y120.657 E43.50995
G1 X75.258 Y117.735 E43.66086
G1 X75.115 Y117.059 E43.69533
G1 X74.64 Y114.053 E43.84716
G1 X74.568 Y113.367 E43.88157
G1 X74.41 Y110.34 E44.03279
G1 X74.41 Y109.65 E44.06722
G1 X74.569 Y106.621 E44.21854
G1 X74.641 Y105.935 E44.25296
G1 X75.117 Y102.928 E44.40484
G1 X75.261 Y102.251 E44.43938
G1 X76.044 Y99.33 E44.59025
G1 X76.258 Y98.672 E44.62477
G1 X77.35 Y95.83 E44.77666
G1 X77.631 Y95.2 E44.81108
G1 X79.006 Y92.502 E44.96216
G1 X79.352 Y91.902 E44.99671
G1 X81.011 Y89.35 E45.14857
G1 X81.416 Y88.794 E45.18289
G1 X83.326 Y86.435 E45.33432
G1 X83.79 Y85.919 E45.36894
G0 F7500 X84.073 Y86.202
G1 F1500 X86.214 Y84.063 E45.51993
G1 X86.696 Y83.63 E45.55225
G1 X89.056 Y81.72 E45.70372
G1 X89.579 Y81.34 E45.73598
G1 X92.13 Y79.683 E45.88774
G1 X92.693 Y79.358 E45.92017
G1 X95.39 Y77.984 E46.07118
G1 X95.982 Y77.72 E46.10352
G1 X98.827 Y76.628 E46.25555
G1 X99.446 Y76.427 E46.28802
G1 X102.368 Y75.645 E46.43893
G1 X103.003 Y75.51 E46.47132
G1 X106.009 Y75.035 E46.62315
G1 X106.654 Y74.967 E46.65551
G1 X109.682 Y74.809 E46.80678
G1 X110.33 Y74.81 E46.83911
G1 X113.358 Y74.969 E46.99038
G1 X114.002 Y75.036 E47.02269
G1 X117.009 Y75.512 E47.17457
G1 X117.645 Y75.647 E47.20701
G1 X120.566 Y76.43 E47.35789
G1 X121.185 Y76.632 E47.39037
G1 X124.029 Y77.725 E47.54238
G1 X124.62 Y77.988 E47.57465
G1 X127.316 Y79.362 E47.72561
G1 X127.88 Y79.688 E47.75811
G1 X130.432 Y81.347 E47.90997
G1 X130.954 Y81.726 E47.94216
G1 X133.313 Y83.636 E48.09359
G1 X133.798 Y84.073 E48.12616
G1 X135.937 Y86.214 E48.27714
G1 X136.37 Y86.696 E48.30947
G1 X138.28 Y89.056 E48.46094
G1 X138.66 Y89.579 E48.49319
G1 X140.317 Y92.13 E48.64495
G1 X140.642 Y92.693 E48.67739
G1 X142.016 Y95.39 E48.8284
G1 X142.28 Y95.982 E48.86073
G1 X143.372 Y98.827 E49.01277
G1 X143.573 Y99.446 E49.04524
G1 X144.355 Y102.368 E49.19615
G1 X144.49 Y103.003 E49.22854
